X: 100288
T: THE SHAMROCK HORNPIPE
C: By W. C. Paton, Edinr.
R: hornpipe, reel
B: K\"ohler's Violin Repository, v.3, 1885 p.212 #3
F: http://www.archive.org/details/klersviolinrepos03rugg
Z: 2012 John Chambers <jc:trillian.mit.edu>
N: The first tripleg in bar 9 was labelled "2".
M: C|
L: 1/8
K: Am
ue2 |\
aAce aAce | aAdf aAdf | efed cBAe | (fe)dc (Bc)de |
aAce aAce | aAdf aAdf | (3efe (3ded (3cdc (3BcB | A2{^g}a2 A2 :||: (uAB) |
(3ccc (cA) (3eee (ed) | cdBc A2(AB) | (3ccc (cA) (3eee (ef) | de cd Bc AB |
(3ccc (cA) (3eee (ed) | cdBc (.A2.f2) | ef de cd Bc | A2{^g}a2 A2 :|

%%sep 2 1 500

